src/assets/outline/Bus.svg

<svg width="24" height="24" viewBox="0 0 24 24"  xmlns="http://www.w3.org/2000/svg">
<path d="M16.9 22.75H7.10001C4.98001 22.75 3.25 21.02 3.25 18.9V5.10001C3.25 2.98001 4.98001 1.25 7.10001 1.25H16.9C19.02 1.25 20.75 2.98001 20.75 5.10001V18.9C20.75 21.02 19.02 22.75 16.9 22.75ZM7.10001 2.75C5.81001 2.75 4.75 3.80001 4.75 5.10001V18.9C4.75 20.19 5.80001 21.25 7.10001 21.25H16.9C18.19 21.25 19.25 20.2 19.25 18.9V5.10001C19.25 3.81001 18.2 2.75 16.9 2.75H7.10001Z" />
<path d="M18.5 13.75H5.5C4.26 13.75 3.25 12.74 3.25 11.5V9.5C3.25 8.26 4.26 7.25 5.5 7.25H18.5C19.74 7.25 20.75 8.26 20.75 9.5V11.5C20.75 12.74 19.74 13.75 18.5 13.75ZM5.5 8.75C5.09 8.75 4.75 9.09 4.75 9.5V11.5C4.75 11.91 5.09 12.25 5.5 12.25H18.5C18.91 12.25 19.25 11.91 19.25 11.5V9.5C19.25 9.09 18.91 8.75 18.5 8.75H5.5Z" />
<path d="M8 18.7501C7.67 18.7501 7.35 18.6201 7.12 18.3801C7.06 18.3301 7.01001 18.2601 6.96001 18.1901C6.92001 18.1301 6.88001 18.0501 6.85001 17.9801C6.81001 17.9001 6.79 17.8201 6.77 17.7401C6.76 17.6601 6.75 17.5801 6.75 17.5001C6.75 17.4201 6.76 17.3401 6.77 17.2601C6.79 17.1801 6.81001 17.1001 6.85001 17.0201C6.88001 16.9501 6.92001 16.8701 6.96001 16.8101C7.01001 16.7401 7.06 16.6701 7.12 16.6201C7.58 16.1501 8.41 16.1501 8.88 16.6201C8.94 16.6701 8.98999 16.7401 9.03999 16.8101C9.07999 16.8701 9.11999 16.9501 9.14999 17.0201C9.18999 17.1001 9.21 17.1801 9.23 17.2601C9.24 17.3401 9.25 17.4201 9.25 17.5001C9.25 17.5801 9.24 17.6601 9.23 17.7401C9.21 17.8201 9.18999 17.9001 9.14999 17.9801C9.11999 18.0501 9.07999 18.1301 9.03999 18.1901C8.98999 18.2601 8.94 18.3301 8.88 18.3801C8.65 18.6201 8.33 18.7501 8 18.7501Z" />
<path d="M16 18.7501C15.67 18.7501 15.35 18.6201 15.12 18.3801C14.88 18.1501 14.75 17.8301 14.75 17.5001C14.75 17.1701 14.88 16.8501 15.12 16.6201C15.58 16.1501 16.42 16.1501 16.88 16.6201C17.12 16.8501 17.25 17.1701 17.25 17.5001C17.25 17.8301 17.12 18.1501 16.88 18.3801C16.65 18.6201 16.33 18.7501 16 18.7501Z" />
<path d="M14.5 5.75H9.5C9.09 5.75 8.75 5.41 8.75 5C8.75 4.59 9.09 4.25 9.5 4.25H14.5C14.91 4.25 15.25 4.59 15.25 5C15.25 5.41 14.91 5.75 14.5 5.75Z" />
</svg>

<?xml version="1.0" encoding="UTF-8"?>
<svg width="24" height="24" viewBox="0 0 24 24" xmlns="http://www.w3.org/2000/svg">
 <path d="m16.9 22.75h-9.8c-2.12 0-3.85-1.73-3.85-3.85v-13.8c0-2.12 1.73-3.85 3.85-3.85h9.8c2.12 0 3.85 1.73 3.85 3.85v13.8c0 2.12-1.73 3.85-3.85 3.85zm-9.8-20c-1.29 0-2.35 1.05-2.35 2.35v13.8c0 1.29 1.05 2.35 2.35 2.35h9.8c1.29 0 2.35-1.05 2.35-2.35v-13.8c0-1.29-1.05-2.35-2.35-2.35h-9.8z"/>
 <path d="m18.5 13.75h-13c-1.24 0-2.25-1.01-2.25-2.25v-2c0-1.24 1.01-2.25 2.25-2.25h13c1.24 0 2.25 1.01 2.25 2.25v2c0 1.24-1.01 2.25-2.25 2.25zm-13-5c-0.41 0-0.75 0.34-0.75 0.75v2c0 0.41 0.34 0.75 0.75 0.75h13c0.41 0 0.75-0.34 0.75-0.75v-2c0-0.41-0.34-0.75-0.75-0.75h-13z"/>
 <path d="m8 18.75c-0.33 0-0.65-0.13-0.88-0.37-0.06-0.05-0.10999-0.12-0.15999-0.19-0.04-0.06-0.08-0.14-0.11-0.21-0.04-0.08-0.06001-0.16-0.08001-0.24-0.01-0.08-0.02-0.16-0.02-0.24s0.01-0.16 0.02-0.24c0.02-0.08 0.04001-0.16 0.08001-0.24 0.03-0.07 0.07-0.15 0.11-0.21 0.05-0.07 0.09999-0.14 0.15999-0.19 0.46-0.47 1.29-0.47 1.76 0 0.06 0.05 0.10999 0.12 0.15999 0.19 0.04 0.06 0.08 0.14 0.11 0.21 0.04 0.08 0.06001 0.16 0.08001 0.24 0.01 0.08 0.02 0.16 0.02 0.24s-0.01 0.16-0.02 0.24c-0.02 0.08-0.04001 0.16-0.08001 0.24-0.03 0.07-0.07 0.15-0.11 0.21-0.05 0.07-0.09999 0.14-0.15999 0.19-0.23 0.24-0.55 0.37-0.88 0.37z"/>
 <path d="m16 18.75c-0.33 0-0.65-0.13-0.88-0.37-0.24-0.23-0.37-0.55-0.37-0.88s0.13-0.65 0.37-0.88c0.46-0.47 1.3-0.47 1.76 0 0.24 0.23 0.37 0.55 0.37 0.88s-0.13 0.65-0.37 0.88c-0.23 0.24-0.55 0.37-0.88 0.37z"/>
 <path d="m14.5 5.75h-5c-0.41 0-0.75-0.34-0.75-0.75s0.34-0.75 0.75-0.75h5c0.41 0 0.75 0.34 0.75 0.75s-0.34 0.75-0.75 0.75z"/>
</svg>
